X:144
T:Keyboard Suite No.7 - Passacaille
C:Handel, G.F.
M:3/4
L:1/8
Q:1/4=58
K:G
|:D2|g4 fg|a2 gf e2|f4 ef|g4 D2|
G4 AB|c2 BA G2|F2 GA Bc|G4:|

